X:1
T:By a fountain where I lay - Dowland
T:James Gibb editions
T:#
%%score [ 1 2 3 4 ]
L:1/8
Q:1/4=108
M:4/4
K:F
V:1 treble nm="Soprano" snm="S"
V:2 treble nm="Alto" snm="A"
V:3 treble-8 nm="Tenor" snm="T"
V:4 bass nm="Bass" snm="B"
V:1
 d6"^By a fountain where I lay" c2 | B2 A2 G2 B2 | A3"^John Dowland\n(1563-1626)" A (B>c d>)e | %3
w: ~By a|foun- tain where I|lay, All bless\- * * ed|
w: ~~~Fair with|gar- lands all a-|dress'd, Was ne\- * * ver|
w: ~~~~Then I|forth- with took my|pipe, Which I * * all|
[M:4/4] f6 (e2- | ed) d4 ^c2 | d8 | d6 c2 | B2 A2 G2 B2 | A3 A (B>c d>)e | f6 (e2- | ed) d4 ^c2 | %11
w: be that|* * bless- ed|day,|By the|glimm'r- ing of the|sun, O ne\- * * ver|be her|* * shin- ing|
w: nymph more|* * fair- ly|bless'd,|Bless- ed|in the high'st de-|gree, So may * * she|e- ver|* * bless- ed|
w: fair and|* * clean did|wipe,|And up-|on a heav'n- ly|ground, All in * * the|grace of|* * beau- ty|
 d8 |: dd d2 d2 e2 | f8 | c2 cc c2 c2 | d8 | dd d2 cc c2 | cccc BB B2 | A2 (^FG) A2 B2 | A6 A2 | %20
w: done,|When I might see a-|lone|My true love's fair- est|one,|Love's dear light, Love's clear sight|No world's eyes can clear- er see|A fair- er sight none,|none can|
w: be,|Came to this foun- tain|near,|With such a smil- ing|cheer.|Such a face, Such a grace,|Hap- py, hap- py eyes that see|Such a * heav'n- ly|sight as|
w: found,|Play- ed this round- e-|lay,|Wel- come, fair queen of|May,|Sing, sweet air, Wel- come fair,|Wel- come be the shep- herd's queen,|The glo\- * ry of|all our|
 !fermata!G8 :| %21
w: be.|
w: she.|
w: green.|
V:2
 B6 A2 | G2 F2 _E2 D2 | C4 z2 G2 |[M:4/4] (F>G A3) B c2- | c2 B2 A3 G | ^F8 | B6 A2 | %7
w: ~By a|foun- tain where I|lay, All|bless\- * * ed be|* that bless- ed|day,|By the|
w: ~~~Fair with|gar- lands all a-|dress'd, Was|ne\- * * ver nymph|* more fair- ly|bless'd,|Bless- ed|
w: ~~~~Then I|forth- with took my|pipe, Which|I * * all fair|* and clean did|wipe,|And up-|
 G2 F2 _E2 D2 | C4 z2 G2 | (F>G A3) B c2- | c2 B2 A3 G | ^F8 |: GG G2 G2 G2 | A8 | A2 GF E2 F2 | %15
w: glimm'r- ing of the|sun, O|ne\- * * ver be|* her shin- ing|done,|When I might see a-|lone|My true love's fair- est|
w: in the high'st de-|gree, So|may * * she e\-|* ver bless- ed|be,|Came to this foun- tain|near,|With such a smil- ing|
w: on a heav'n- ly|ground, All|in * * the grace|* of beau- ty|found,|Play- ed this round- e-|lay,|Wel- come, fair queen of|
 F8 | BB B2 AA A2 | GAGG GGGG | (^FF) D2 z A,DE | (^FF) G4 F2 | !fermata!G8 :| %21
w: one,|Love's dear light, Love's clear sight|No world's eyes can clear- er see A|fair- er sight, a fair- er|sight none, none can|be.|
w: cheer.|Such a face, Such a grace,|Hap- py, hap- py eyes that see A|heav'n- ly sight, see such a|heav'n- ly sight as|she.|
w: May,|Sing, sweet air, Wel- come fair,|Wel- come be the shep- herd's queen, The|glo\- * ry, the glo- ry|of * all our|green.|
V:3
 g2 g2 f4 | d4 B2 f2 | f3 e (dc B2) |[M:4/4][K:treble-8] A4 z2 a2- | aadg f2 e2 | d8 | g2 g2 f4 | %7
w: ~By a foun-|tain where I|lay, All bless\- * *|ed, bless\-|* ed be that bless- ed|day,|By the glimm'r-|
w: ~~~Fair with gar-|lands all a-|dress'd, Was ne\- * *|ver, ne\-|* ver nymph more fair- ly|bless'd,|Bless- ed in|
w: ~~~~Then I forth-|with took my|pipe, Which I * *|all fair,|* all fair and clean did|wipe,|And up- on|
 d4 B2 f2 | f3 e (dc B2) | A4 z2 a2- | aadg f2 e2 | d8 |: BB B2 B2 c2 | c8 | c2 GA G2 A2 | B8 | %16
w: ing of the|sun, O ne\- * *|ver, ne\-|* ver be her shin- ing|done,|When I might see a-|lone|My true love's fair- est|one,|
w: the high'st de-|gree, So may * *|she, may|* she e- ver bless- ed|be,|Came to this foun- tain|near,|With such a smil- ing|cheer.|
w: a heav'n- ly|ground, All in * *|the grace,|* the grace of beau- ty|found,|Play- ed this round- e-|lay,|Wel- come, fair queen of|May,|
 ff f2 ff c2 | efce dd d2 | d d2 c AcBc | d6 (dd) | !fermata!d8 :| %21
w: Love's dear light, Love's clear sight|No world's eyes can clear- er see,|A fair- er sight, a fair- er|sight none can|be.|
w: Such a face, Such a grace,|Hap- py, hap- py eyes that see|Such a sight, such a heav'n- ly|sight as *|she.|
w: Sing, sweet air, Wel- come fair,|Wel- come be the shep- herd's queen,|The glo- ry of, the glo- ry|of all our|green.|
V:4
 (G,3 A, B,2) F,2 | G,2 D,2 _E,2 B,,2 | F,4 G,4 |[M:4/4] (D,>E, F,>G, A,3) G, | ^F,2 G,2 A,2 A,,2 | %5
w: ~By * * a|foun- tain where I|lay, All|bless\- * * * * ed|be that bless- ed|
w: ~~~Fair * * with|gar- lands all a-|dress'd, Was|ne\- * * * * ver|nymph more fair- ly|
w: ~~~~Then * * I|forth- with took my|pipe, Which|I * * * * all|fair and clean did|
 D,8 | (G,3 A, B,2) F,2 | G,2 D,2 _E,2 B,,2 | F,4 G,4 | (D,>E, F,>G, A,3) G, | ^F,2 G,2 A,2 A,,2 | %11
w: day,|By * * the|glimm'r- ing of the|sun, O|ne\- * * * * ver|be that shin- ing|
w: bless'd,|Bless\- * * ed|in the high'st de-|gree, So|may * * * * she|e- ver bless- ed|
w: wipe,|And * * up-|on a heav'n- ly|ground, All|in * * * * the|grace of beau- ty|
 D,8 |: G,G, G,2 G,2 C,2 | F,8 | F,2 E,F, C,2 F,2 | B,,8 | B,,B,, B,,2 F,F, F,2 | %17
w: done,|When I might see a-|lone|My true love's fair- est|one,|Love's dear light, Love's clear sight|
w: be,|Came to this foun- tain|near,|With such a smil- ing|cheer.|Such a face, Such a grace,|
w: found,|Play- ed this round- e-|lay,|Wel- come, fair queen of|May,|Sing, sweet air, Wel- come fair,|
 C,F,E,C, G,G,, G,,2 | D,2 (D,E,) ^F,2 G,2 | D,6 D,2 | !fermata!G,,8 :| %21
w: No world's eyes can clear- er see|A fair- er sight none,|none can|be.|
w: Hap- py, hap- py eyes that see|Such a * heav'n- ly|sight as|she.|
w: Wel- come be the shep- herd's queen,|The glo\- * ry of|all our|green.|

